icons/broadcast-16.svg

<svg width="16" height="16" viewBox="0 0 16 16" xmlns="http://www.w3.org/2000/svg">
  <path fill-rule="evenodd" clip-rule="evenodd" d="M3.26732 1.45698C3.56723 1.74269 3.57873 2.21742 3.29302 2.51733C2.18133 3.68425 1.5 5.26177 1.5 7.00002C1.5 8.6184 2.09049 10.097 3.06873 11.2349C3.14139 11.3194 3.21618 11.4021 3.29302 11.4827C3.57873 11.7826 3.56723 12.2574 3.26733 12.5431C2.96742 12.8288 2.49269 12.8173 2.20698 12.5174C2.11252 12.4182 2.02058 12.3166 1.93127 12.2127L2.5 11.7238L1.93127 12.2127C0.72798 10.813 0 8.99059 0 7.00002C0 4.86137 0.840192 2.91736 2.20698 1.48268C2.49269 1.18277 2.96742 1.17127 3.26732 1.45698ZM12.7327 1.45699C13.0326 1.17129 13.5073 1.18279 13.793 1.4827C15.1598 2.91738 16 4.86138 16 7.00002C16 9.13866 15.1598 11.0827 13.793 12.5173C13.5073 12.8172 13.0326 12.8288 12.7327 12.543C12.4328 12.2573 12.4213 11.7826 12.707 11.4827C13.8187 10.3158 14.5 8.73826 14.5 7.00002C14.5 5.26178 13.8187 3.68427 12.707 2.51734C12.4213 2.21744 12.4328 1.7427 12.7327 1.45699ZM8.75 8.58159C9.34124 8.30073 9.75 7.6981 9.75 7C9.75 6.0335 8.9665 5.25 8 5.25C7.0335 5.25 6.25 6.0335 6.25 7C6.25 7.6981 6.65876 8.30073 7.25 8.58159V14.25C7.25 14.6642 7.58579 15 8 15C8.41421 15 8.75 14.6642 8.75 14.25V8.58159ZM5.33112 4.73558C5.59929 4.41989 5.56077 3.94658 5.24508 3.67841C4.92939 3.41024 4.45608 3.44877 4.18791 3.76445C3.44743 4.63615 3 5.76679 3 7.00002C3 8.22699 3.44292 9.35247 4.17673 10.2224C4.44381 10.539 4.91698 10.5791 5.23359 10.312C5.5502 10.045 5.59035 9.57179 5.32327 9.25518C4.80916 8.64573 4.5 7.85995 4.5 7.00002C4.5 6.13574 4.8123 5.34633 5.33112 4.73558ZM11.8233 3.77767C11.5562 3.46106 11.083 3.42091 10.7664 3.68798C10.4498 3.95506 10.4096 4.42824 10.6767 4.74485C11.1908 5.3543 11.5 6.14008 11.5 7.00002C11.5 7.85995 11.1908 8.64573 10.6767 9.25518C10.4096 9.57179 10.4498 10.045 10.7664 10.312C11.083 10.5791 11.5562 10.539 11.8233 10.2224C12.5571 9.35247 13 8.22699 13 7.00002C13 5.77304 12.5571 4.64756 11.8233 3.77767Z"/>
</svg>

<svg xmlns="http://www.w3.org/2000/svg" width="16" height="16" viewBox="0 0 16 16"><path fill-rule="evenodd" d="M3.267 1.457c.3.286.312.76.026 1.06A6.475 6.475 0 001.5 7a6.472 6.472 0 001.793 4.483.75.75 0 01-1.086 1.034 8.89 8.89 0 01-.276-.304l.569-.49-.569.49A7.971 7.971 0 010 7c0-2.139.84-4.083 2.207-5.517a.75.75 0 011.06-.026zm9.466 0a.75.75 0 011.06.026A7.975 7.975 0 0116 7c0 2.139-.84 4.083-2.207 5.517a.75.75 0 11-1.086-1.034A6.475 6.475 0 0014.5 7a6.475 6.475 0 00-1.793-4.483.75.75 0 01.026-1.06zM8.75 8.582a1.75 1.75 0 10-1.5 0v5.668a.75.75 0 001.5 0V8.582zM5.331 4.736a.75.75 0 10-1.143-.972A4.983 4.983 0 003 7c0 1.227.443 2.352 1.177 3.222a.75.75 0 001.146-.967A3.483 3.483 0 014.5 7c0-.864.312-1.654.831-2.264zm6.492-.958a.75.75 0 00-1.146.967c.514.61.823 1.395.823 2.255 0 .86-.31 1.646-.823 2.255a.75.75 0 101.146.967A4.983 4.983 0 0013 7a4.983 4.983 0 00-1.177-3.222z"/></svg>
